X:1
T:Come By The Hills  "CYMRU 22:18 09/09/97"
M:6/8
L:1/8
Q:80
C:Trad
S:Slow Air
K:HP
|: {gfg}f3/2e/2f{gef}e3/2d/2B | \
{g}A2{GdGe}A{g}B3/2d/2e | \
{Gdc}d2-d2{g}A |
{Gdc}d3/2e/2f{gf}g3/2f/2e | \
{gfg}f3/2e/2d{g}B3/2d/2f | \
{gef}e3-e2{gf}g |
{ag}a3/2f/2d{gdc}d3/2e/2f | \
{gf}g3/2f/2g{ag}a3/2f/2d | \
{gef}e3-e3/2{g}d/2e |
{gfg}f3/2e/2f{gef}e3/2d/2B | \
{g}A2{GdGe}A{g}B3/2d/2e | \
{Gdc}d3-d2 :|
